!!!!SEGMENT: pl-kc--40102-iii-1-saf--002-022_zielenski-mikolaj--communiones-totius-anni-in-festo-s-thomae-apostoli-mitte-manum-tuam.krn
!!!cenid: 16xx:1553
!!!COM: Zieleński, Mikołaj
!!!COM-rismID:
!!!CDT: <1611->1611
!!!CNT: Polish
!!!GTL: Communiones totius anni
!!!OTL: In festo S. Thomae Apostoli/Mitte manum tuam
!!!OMV: 022
!!!PDT: 1611
!!!AGN:
!!!SMS-siglum: PL-Kc
!!!SMS-shelfmark: 40102 III/1 Saf.
!!!SMS-shelfwork: 002-022 G
!!!SMS-variant:
!!!SMS-altvar:
!!!NIFC-rismSourceID: 990069887
!!!NIFC-islandoraID:
!!!URL-pdf-islandora:
!!!URL-scan: https://cyfrowe.mnk.pl/dlibra/publication/24235/edition/23926/content?ref=desc @EN{Scan on The National Museum in Krakow Website} @PL{Skany w portalu Biblioteka Cyfrowa Muzeum Narodowego w Krakowie}
!!!ONB-nifc: UWAGA: str. 55-56. Numer w źródle: 23. Uwaga: W xml metrum 2/1 do źródłowego C| i odpowiednio 3/1 do 3/2
!!!AIN: 4 organ
!!!key:
**kern	**kern	**kern	**kern
*group1	*group1	*group1	*group1
*part4	*part3	*part2	*part1
*staff4	*staff3	*staff2	*staff1
*I""Organo	*I""Organo	*I""Organo	*I""Organo
*I''org	*I''org	*I''org	*I''org
*Iorgan	*Iorgan	*Iorgan	*Iorgan
*ICklav	*ICklav	*ICklav	*ICklav
*clefF3	*clefC3	*clefC2	*clefG2
*k[b-]	*k[b-]	*k[b-]	*k[b-]
*F:	*F:	*F:	*F:
*M2/1	*M2/1	*M2/1	*M2/1
*met(C|)	*met(C|)	*met(C|)	*met(C|)
=1	=1	=1	=1
!	!	!LO:TX:t=P:problem=przy kluczu b- B-	!
!LO:TX:t=P:problem=przy kluczu B- BB-	!	!LO:TX:a:t=Mitte manum tuam.	!LO:TX:a:t=In feſto S. Thomae Apoſtoli. Duae voces.
1r	1.c	00r	00r
1.F	.	.	.
.	2A/	.	.
=2-	=2-	=2-	=2-
.	2c/	.	.
2C/	2c/	.	.
2D/	1B-	.	.
2E/	.	.	.
=3	=3	=3	=3
1F	2.A/	1r	1.cc
.	4G/	.	.
2FF	4A/	1.f	.
.	4B-/	.	.
2.F/	4c/	.	2a/
.	4B-/	.	.
=4-	=4-	=4-	=4-
.	2A/	.	2cc\
4F/	.	.	.
2E/	2G/	2c/	2cc\
2D/	2F/	2d/	1b-
2GG/	2G/	2e/	.
=5	=5	=5	=5
2.D/	1.A	4f\	1a
.	.	4d/	.
.	.	4f\	.
4E/	.	8e/	.
.	.	8d/	.
4F/	.	2c/	2r
4E/	.	.	.
4D/	2A/	2.d/	1ff
4C/	.	.	.
=6-	=6-	=6-	=6-
2BB-/	2B-/	.	.
.	.	4e/	.
!	!	!LO:N:vis=2	!
1B-	1d	2.f\	2dd\
.	.	.	2ff\
.	.	4g\	.
2A\	[y2c/	4a\	2ff\
.	.	4b-\	.
=7	=7	=7	=7
!	!LO:N:xstem:cue	!	!
2A\	4c/]	4cc\	1ee
.	4d\	8b-\	.
.	.	8a\	.
2c\	4e\	4g\	.
.	4f\	4a\	.
!	!	!LO:N:acc=#	!
0G	2g\	2bn\	2dd\
.	2e\	1cc	2.gg\
=8-	=8-	=8-	=8-
.	1d	.	.
.	.	.	8ff\
.	.	.	8ee\
!	!	!LO:N:acc=#	!
.	.	2bn\	2dd\
*custos:C	*custos:e	*custos:cc	*custos:cc
!!LO:LB:g=original
2C/	2e\	4cc\	[<1cc
.	.	4b-y\	.
[<2F/	[<2c/	4a\	.
.	.	4g\	.
=9	=9	=9	=9
2F/]	2c/]	2a\	1cc]
2E/	2.c/	2g\	.
*lig	*	*	*
1D	.	2f\	2r
!	!LO:N:acc=#	!	!
.	8Bn/	.	.
.	8A/	.	.
.	2B/	2d/	1ff
=10-	=10-	=10-	=10-
1C	2.c/	1g	.
.	.	.	2ee\
.	4G/	.	.
*Xlig	*	*	*
2.D/	4B-y/	2f\	2dd\
.	4A/	.	.
.	[y2d\	[y2f\	4a/
4D/	.	.	4a/
=11	=11	=11	=11
!	!LO:N:xstem:cue	!LO:N:xstem:cue	!
4BB-/	4d\]	4f\]	4b-/
4AA/	4c/	4f\	4cc\
2BB-/	2B-/	2f\	2dd\
2.F/	2.A/	2f\	2.cc\
.	.	2c/	.
2C/	4G/	.	4gg\
=12-	=12-	=12-	=12-
.	4c/	1.g	4ee\
2c\	4c/	.	4ee\
.	2d\	.	2dd\
!LO:N:acc=#	!	!	!
4Bn\	.	.	.
4c\	2e\	.	4cc\
4C/	.	.	4cc\
4F\	2c/	2f\	4a/
4FF/	.	.	4a/
=13	=13	=13	=13
2BB-/	4B-/	2d/	4g/
.	4A/	.	4f/
2D/	4G/	2B-/	2.f/
.	4F/	.	.
1C	2.G/	1c	.
.	.	.	8e/
.	.	.	8d/
.	.	.	2e/
.	4G/	.	.
=14-	=14-	=14-	=14-
4FF/	4A/	2.c/	2f/
4F/	4A/	.	.
4E/	4G/	.	4r
4D/	4F/	4B-/	4ff\
2C/	2G/	2c/	4ee\
.	.	.	4dd\
[<2F/	[<2A/	[<2c/	4cc\
.	.	.	4b-/
=15	=15	=15	=15
2F/]	2A/]	2c/]	4a/
.	.	.	4g/
2D/	2d\	2f\	4f/
.	.	.	4a/
2.G\	1.B-	1.d	4b-/
.	.	.	4cc\
.	.	.	4dd\
8F/	.	.	4ee\
8E/	.	.	.
=16-	=16-	=16-	=16-
4D/	.	.	2ff\
4E/	.	.	.
1F	4A/	2.c/	2cc\
.	4G/	.	.
.	2A/	.	2r
.	.	4c/	.
2BB-/	2F/	4B-/	2ff\
.	.	4A/	.
=17	=17	=17	=17
1C	4c/	2G/	4ee\
.	4B-/	.	4dd\
.	4A/	2c/	4cc\
.	4G/	.	4b-/
2.D/	4F/	2.f\	4a/
.	4E/	.	4g/
.	4F/	.	4a/
8C/	4G/	8e/	4b-/
8BB-/	.	8d/	.
=18-	=18-	=18-	=18-
4AA/	1.A	2c/	4cc\
2F/	.	.	4f/
.	.	4d/	2.ff\
4E/	.	4e/	.
4D/	.	4f\	.
4E/	.	4g\	4ee\
4F/	2f\	2a\	[<2dd\
4D/	.	.	.
=19	=19	=19	=19
1A	1e	1a	4dd\]
.	.	.	8cc#X\
.	.	.	8b-\
.	.	.	2cc#\
2.D/	2f\	2a\	1dd
.	2d\	2f\	.
4D/	.	.	.
=20-	=20-	=20-	=20-
4.F/	4.c/	4.a\	2r
8F/	8c/	8a\	.
4F/	4c/	4a\	2a/
2F/	2f\	2a\	.
.	.	.	4.ccny\
4F/	4f\	4a\	.
.	.	.	8cc\
[y2A\	[y2e\	[y2a\	4cc\
.	.	.	[<4cc\
=21	=21	=21	=21
!LO:N:xstem:cue	!LO:N:xstem:cue	!LO:N:xstem:cue	!
4A\]	4e\]	4a\]	4cc\]
4A\	4e\	4a\	4cc\
2D/	2.f\	2a\	4.dd\
.	.	.	8dd\
4r	.	2f\	2a/
4F/	4f\	.	.
4.A\	4.c/	4.e/	4r
.	.	.	4cc\
8A\	8c/	8e/	.
=22-	=22-	=22-	=22-
4A\	4c/	4e/	4.ee\
2A\	2c/	2a\	.
.	.	.	8ee\
.	.	.	4ee\
4A\	4c/	4a\	2ee\
4.c\	4.e\	4.g\	.
.	.	.	4ee\
8c\	8e\	8g\	.
2F/	2c/	2a\	4.ff\
.	.	.	8ff\
=23	=23	=23	=23
2C/	2.c/	2g\	2ee\
1F	.	1f	4a/
.	4B-/	.	4b-/
.	2A/	.	4cc\
.	.	.	4dd\
2E/	2G/	2c/	4ee\
.	.	.	4cc\
=24-	=24-	=24-	=24-
1D	2.A/	1d	2ff\
.	.	.	4ee\
!	!LO:N:acc=#	!	!
.	4Bn/	.	4dd\
2A\	2c/	2e/	4cc\
.	.	.	4a/
2E/	2g\	2cc\	[y2ee\
=25	=25	=25	=25
!	!	!	!LO:N:xstem:cue
2.F/	1f	1.a	4ee\]
.	.	.	4dd\
.	.	.	2.dd\
4G\	.	.	.
2A\	1e	.	.
.	.	.	8cc#X\
.	.	.	8b-\
2A\	.	2a\	2cc#\
=26-	=26-	=26-	=26-
2D/	2d\	2f\	2dd\
1D	1A	4d/	1ff
.	.	4e/	.
.	.	4f\	.
.	.	4g\	.
2C#X/	2A/	2a\	2ee\
*custos:D	*custos:f	*custos:a	*custos:dd
!!LO:PB:g=original
=27	=27	=27	=27
1D	2.f\	2.a\	2.dd\
.	4e\	4g\	4cc\
2D/	2.d\	2f\	4b-/
.	.	.	4a/
2F/	.	2f\	2.a/
.	4c/	.	.
=28-	=28-	=28-	=28-
2G\	1B-	2.d/	.
.	.	.	8g/
.	.	.	8f/
2GG/	.	.	2g/
.	.	4e/	.
2D/	2.A/	2.f\	1a
2F/	.	.	.
.	4A/	4d/	.
=29	=29	=29	=29
2E/	2G/	4e/	2r
.	.	2c/	.
2D/	2F/	.	2ff\
!	!	!LO:N:acc=#	!
.	.	4Bn/	.
2C/	2G/	2c/	4ee\
.	.	.	4dd\
1F	1A	1c	4cc\
.	.	.	4b-/
=30-	=30-	=30-	=30-
.	.	.	4a/
.	.	.	4g/
2D/	2d\	2f\	4f/
.	.	.	4a/
2.G\	[y1B-	[y1d	4b-/
.	.	.	4cc\
.	.	.	4dd\
8F/	.	.	4ee\
8E/	.	.	.
=31	=31	=31	=31
!	!LO:N:xstem:cue:vis=4	!LO:N:xstem:cue:vis=4	!
4D/	2B-/]	2d/]	2ff\
4E/	.	.	.
1F	4A/	2.c/	2cc\
.	4G/	.	.
.	2A/	.	2r
.	.	4c/	.
2BB-/	2F/	4B-/	2ff\
.	.	4A/	.
=32-	=32-	=32-	=32-
1C	4c/	2G/	4ee\
.	4B-/	.	4dd\
.	4A/	2c/	4cc\
.	4G/	.	4b-/
2.D/	4F/	2.f\	4a/
.	4E/	.	4g/
.	4F/	.	4a/
8C/	4G/	8e/	4b-/
8BB-/	.	8d/	.
=33	=33	=33	=33
4AA/	1.A	2c/	4cc\
2F/	.	.	4f/
.	.	2.d/	2.ff\
4E/	.	.	.
4D/	.	.	.
4C/	.	4e/	4ee\
1BB-	1B-	2.f\	4dd\
.	.	.	4cc\
=34-	=34-	=34-	=34-
.	.	.	4dd\
.	.	4g\	2g/
2C/	2G/	2e/	.
.	.	.	2cc\
2G\	1G	1d	.
!	!	!	!LO:TX:a:t=P:problem=# above
!	!	!	!LO:N:acc=#
.	.	.	8bn/
.	.	.	8a/
2GG/	.	.	2b/
=35	=35	=35	=35
2C/	2G/	2e/	2.cc\
1F	1A	1c	.
.	.	.	4f/
.	.	.	4a/
.	.	.	4b-/
4E/	4G/	2f\	4cc\
4D/	4F/	.	4dd\
=36	=36	=36	=36
2C/	2G/	2d/	4ee\
.	.	.	4cc\
2FF/	2c/	2a\	2.ff\
1C	1c	1g	.
.	.	.	8ee\
.	.	.	8dd\
.	.	.	2ee\
=37-	=37-	=37-	=37-
0FFl	0cl	0al	0ffl
==	==	==	==
*-	*-	*-	*-
!!!system-decoration: *
!!!RDF**kern: > = above
!!!RDF**kern: < = below
!!!RDF**kern: l = terminal long
!!!ENC: Berenika Jozajtis
!!!END: 2021-12-22
!!!ENC: Andrzej Kubiczek
!!!END: 2021-12-24
